icons/globe.svg

<svg width="14" height="14" viewBox="0 0 14 14" fill="none" xmlns="http://www.w3.org/2000/svg">
<path d="M7 2C9.76142 2 12 4.23858 12 7C12 9.76142 9.76142 12 7 12C4.23858 12 2 9.76142 2 7C2 4.23858 4.23858 2 7 2ZM5.84961 7.5C5.91825 8.70229 6.23371 9.89368 6.79785 10.9951C6.86481 10.9985 6.93221 11 7 11C7.06746 11 7.13453 10.9984 7.20117 10.9951C7.76544 9.89357 8.08174 8.70243 8.15039 7.5H5.84961ZM3.03223 7.5C3.2179 8.98847 4.22067 10.2217 5.57812 10.7383C5.14736 9.69897 4.90318 8.60338 4.84668 7.5H3.03223ZM9.15332 7.5C9.09682 8.6035 8.85176 9.69887 8.4209 10.7383C9.77879 10.2219 10.7821 8.98878 10.9678 7.5H9.15332ZM8.4209 3.26074C8.85197 4.3004 9.0968 5.3962 9.15332 6.5H10.9678C10.7821 5.0111 9.77895 3.77708 8.4209 3.26074ZM5.57812 3.26074C4.22051 3.77728 3.21791 5.01141 3.03223 6.5H4.84668C4.90319 5.39632 5.14714 4.3003 5.57812 3.26074ZM6.79785 3.00391C6.23346 4.10556 5.91826 5.29743 5.84961 6.5H8.15039C8.08173 5.29729 7.76569 4.10567 7.20117 3.00391C7.13455 3.00061 7.06744 3 7 3C6.93223 3 6.8648 3.00058 6.79785 3.00391Z" fill="red"/>
</svg>

<svg xmlns="http://www.w3.org/2000/svg" width="14" height="14" fill="none" viewBox="0 0 14 14"><path fill="red" d="M7 2a5 5 0 1 1 0 10A5 5 0 0 1 7 2M5.85 7.5a8.8 8.8 0 0 0 .948 3.495 4 4 0 0 0 .403 0 8.8 8.8 0 0 0 .95-3.495zm-2.818 0a4 4 0 0 0 2.546 3.238A9.8 9.8 0 0 1 4.847 7.5zm6.121 0a9.8 9.8 0 0 1-.732 3.238A4 4 0 0 0 10.968 7.5zm-.732-4.24a9.8 9.8 0 0 1 .732 3.24h1.815A4 4 0 0 0 8.42 3.26m-2.843 0A4 4 0 0 0 3.032 6.5h1.815c.056-1.104.3-2.2.731-3.24m1.22-.256A8.8 8.8 0 0 0 5.85 6.5h2.3a8.8 8.8 0 0 0-.949-3.496 4 4 0 0 0-.403 0"/></svg>
